X: 1967
T: Watermelon Vine
B: australian traditional tunes wiki
M:2/4
L:1/4
R: March
Q: 1/4=100
K:D
V:1 
|:"D"AF/G/|A/dd/|"Em"cE/F/|G2|"A7"GE/F/|G/BB/|"D"AD/E/|F2|
AF/G/|A/dd/|"Em"cB/^A/|B>d|"A7"c/c/ B/A/|c/c/ B/A/|A/A/ B/c/|"D"d2:|
% abcbook-tune_id 6342d5bef4df0d11c28d5009


% abcbook-boost 0
% abcbook-tablature 
% abcbook-transpose 
% abcbook-lastupdated 1665324491172
% abcbook-soundfonts 
% abcbook-repeats 1
% NFF Book 2013

